assets/icons/action/update_status.svg

<?xml version="1.0"?><svg xmlns="http://www.w3.org/2000/svg" width="52" height="52" viewBox="0 0 52 52"><g fill="#fff"><path d="m29.8 30.6l1.6 1.6c0.4 0.4 1 0.4 1.4 0l4.6-4.7c0.4-0.4 0.6-0.9 0.6-1.4v-18.1c0-1.7-1.3-3-3-3h-30c-1.7 0-3 1.3-3 3v22c0 1.7 1.3 3 3 3h13.7c0.5 0 1-0.2 1.4-0.6l1.7-1.7c0.8-0.8 1.8-1.4 2.9-1.6 1.8-0.4 3.7 0.2 5.1 1.5z m-19.8-16.6c0-0.6 0.4-1 1-1h18c0.6 0 1 0.4 1 1v2c0 0.6-0.4 1-1 1h-18c-0.6 0-1-0.4-1-1v-2z m1 11c-0.6 0-1-0.4-1-1v-2c0-0.6 0.4-1 1-1h14c0.6 0 1 0.4 1 1v2c0 0.6-0.4 1-1 1h-14z m38.5 2.7l-2.2-2.2c-0.6-0.6-1.6-0.6-2.2 0l-12.3 12.4c-0.4 0.4-1.1 0.4-1.5 0l-4.4-4.5c-0.6-0.6-1.6-0.6-2.2 0l-2.2 2.2c-0.6 0.6-0.6 1.6 0 2.2l8.5 8.6c0.6 0.6 1.6 0.6 2.2 0l16.3-16.4c0.7-0.7 0.7-1.7 0-2.3z"></path></g><path fill="#fff" d="m19.5 33"></path></svg>

<svg xmlns="http://www.w3.org/2000/svg" x="0px" y="0px"
	 width="52px" height="52px" viewBox="0 0 52 52" enable-background="new 0 0 52 52" xml:space="preserve">
<g>
	<path fill="#FFFFFF" d="M29.8,30.6l1.6,1.6c0.4,0.4,1,0.4,1.4,0l4.6-4.7c0.4-0.4,0.6-0.9,0.6-1.4V8c0-1.7-1.3-3-3-3H5
		C3.3,5,2,6.3,2,8v22c0,1.7,1.3,3,3,3h13.7c0.5,0,1-0.2,1.4-0.6c0.7-0.7,1.7-1.7,1.7-1.7c0.8-0.8,1.8-1.4,2.9-1.6
		C26.5,28.7,28.4,29.3,29.8,30.6z M10,14c0-0.6,0.4-1,1-1h18c0.6,0,1,0.4,1,1v2c0,0.6-0.4,1-1,1H11c-0.6,0-1-0.4-1-1V14z M11,25
		c-0.6,0-1-0.4-1-1v-2c0-0.6,0.4-1,1-1h14c0.6,0,1,0.4,1,1v2c0,0.6-0.4,1-1,1H11z"/>
	<path fill="#FFFFFF" d="M49.5,27.7l-2.2-2.2c-0.6-0.6-1.6-0.6-2.2,0L32.8,37.9c-0.4,0.4-1.1,0.4-1.5,0l-4.4-4.5
		c-0.6-0.6-1.6-0.6-2.2,0l-2.2,2.2c-0.6,0.6-0.6,1.6,0,2.2l8.5,8.6c0.6,0.6,1.6,0.6,2.2,0L49.5,30C50.2,29.3,50.2,28.3,49.5,27.7z"
		/>
</g>
<path fill="#FFFFFF" d="M19.5,33"/>
</svg>
